X:1
T:Tony \& Barbara Gibbons
R:Strathspey
C:Anselm Lingnau
S:16 July 1995
G:SSL 4
H:Tony Gibbons and his wife Barbara have been very helpful
`organizing' the dancing when Dagmar and I visited Edinburgh (twice)
in 1995.
K:D
M:C
E:5
A>G|"D"F<A A>B d<A A>f|"Em"g>f e>d "A"c>e c<A|"D"F<A A>B d<A A>F|\
"Em"G>A B<G "A"E2 FG|
"D"F<A A>B "Bm"A>F (3DEF|"Em"G>F E>D "A"C<E E>A|"D"F<D A>G "Bm"F<d "Em"(3BAG|\
"A"F<A F>E "D"D2||
d>c|"G"B<d d>B "D"B<A A>F|"Em"G<B B>G "A"E3 F/G/|"D"F<A A>F "Bm"D2 (3DEF|\
"Em"G>F E>D "A"C<E E>A|
"G"B<d d>b "D"a<d "A"e>c|"D"d<D "Em"E>D "A"CE A>G|\
"D"F<D A>G "Bm"F<d "Em"(3BAG|"A"F<A F>E "D"D2|]

